svgs/sharp-solid/triangle-exclamation.svg

<svg xmlns="http://www.w3.org/2000/svg" viewBox="0 0 512 512"><!--! Font Awesome Pro 6.6.0 by @fontawesome - https://fontawesome.com License - https://fontawesome.com/license (Commercial License) Copyright 2024 Fonticons, Inc. --><path d="M256 32L0 480l512 0L256 32zm24 160l0 24 0 112 0 24-48 0 0-24 0-112 0-24 48 0zM232 384l48 0 0 48-48 0 0-48z"/></svg>

<svg xmlns="http://www.w3.org/2000/svg" viewBox="0 0 512 512"><!--! Font Awesome Pro 6.5.2 by @fontawesome - https://fontawesome.com License - https://fontawesome.com/license (Commercial License) Copyright 2024 Fonticons, Inc. --><path d="M256 32L0 480H512L256 32zm24 160v24V328v24H232V328 216 192h48zM232 384h48v48H232V384z"/></svg>
